32x32/apps/danganronpa.svg

<svg height="32" width="32" xmlns="http://www.w3.org/2000/svg"><circle cx="8.5" cy="7.5" fill="#c9c9c9" r="4.5"/><path d="m8.5 3a4.5 4.5 0 0 0 -4.5 4.5 4.5 4.5 0 0 0 .033.488 4.5 4.5 0 0 1 4.467-3.988 4.5 4.5 0 0 1 4.467 4.012 4.5 4.5 0 0 0 .033-.512 4.5 4.5 0 0 0 -4.5-4.5z" fill="#f4f4f7" opacity=".1"/><circle cx="23.5" cy="7.5" fill="#17191e" r="4.5"/><path d="m23.5 3a4.5 4.5 0 0 0 -4.5 4.5 4.5 4.5 0 0 0 .033.488 4.5 4.5 0 0 1 4.467-3.988 4.5 4.5 0 0 1 4.467 4.012 4.5 4.5 0 0 0 .033-.512 4.5 4.5 0 0 0 -4.5-4.5z" fill="#f4f4f7" opacity=".1"/><ellipse cx="16" cy="18" opacity=".2" rx="14" ry="12"/><path d="m16 5a14 12 0 0 0 -14 12 14 12 0 0 0 14 12z" fill="#f4f4f7"/><path d="m16 5v24a14 12 0 0 0 14-12 14 12 0 0 0 -14-12z" fill="#4f4f4f"/><circle cx="11.5" cy="14.5" opacity=".1" r="1.5"/><circle cx="11.5" cy="13.5" fill="#17191e" r="1.5"/><path d="m16 19v3c9 0 11-6 11-6s-3 3-11 3z" fill="#f4f4f7"/><path d="m21 13-3 3s1.737-.425 2.542 0c.605.32.458 2 .458 2s1-2 2-2 1 1 1 1l2-5s-2 3-4 3c-.745 0-1-2-1-2z" opacity=".2"/><path d="m21 12-3 3s1.737-.425 2.542 0c.605.32.458 2 .458 2s1-2 2-2 1 1 1 1l2-5s-2 3-4 3c-.745 0-1-2-1-2z" fill="#f00e0e"/><path d="m14 19h2v3h-2z" fill="#4f4f4f"/><path d="m12 20s1 5 4 5c1.49 0 4-2.458 4-2.458s-2 .458-4 .458-2-3-2-3z" opacity=".1"/><path d="m12 19s1 5 4 5c1.49 0 4-2.458 4-2.458s-2 .458-4 .458-2-3-2-3z" fill="#b3b3b3"/><path d="m13 21c2 0 3-1 3-1s1 1 3 1c1 0 2-1 2-2s-1-3-5-3-5 2-5 3 1 2 2 2z" opacity=".2"/><path d="m13 20c2 0 3-1 3-1s1 1 3 1c1 0 2-1 2-2s-1-3-5-3-5 2-5 3 1 2 2 2z" fill="#b3b3b3"/><path d="m16 19 2-2h-4z" opacity=".1"/><path d="m16 18 2-2h-4z" fill="#17191e"/><g fill="#f4f4f7"><path d="m16 5a14 12 0 0 0 -14 12 14 12 0 0 0 .023.414 14 12 0 0 1 13.977-11.414z" opacity=".2"/><path d="m16 5v1a14 12 0 0 1 13.977 11.586 14 12 0 0 0 .023-.586 14 12 0 0 0 -14-12z" opacity=".1"/></g></svg>

<svg height="32" width="32" xmlns="http://www.w3.org/2000/svg">
    <circle cx="8.5" cy="7.5" fill="#c9c9c9" r="4.5"/>
    <path d="M8.5 3A4.5 4.5 0 0 0 4 7.5a4.5 4.5 0 0 0 .033.488A4.5 4.5 0 0 1 8.5 4a4.5 4.5 0 0 1 4.467 4.012A4.5 4.5 0 0 0 13 7.5 4.5 4.5 0 0 0 8.5 3z" fill="#f4f4f7" opacity=".1"/>
    <circle cx="23.5" cy="7.5" fill="#17191e" r="4.5"/>
    <path d="M23.5 3A4.5 4.5 0 0 0 19 7.5a4.5 4.5 0 0 0 .033.488A4.5 4.5 0 0 1 23.5 4a4.5 4.5 0 0 1 4.467 4.012A4.5 4.5 0 0 0 28 7.5 4.5 4.5 0 0 0 23.5 3z" fill="#f4f4f7" opacity=".1"/>
    <ellipse cx="16" cy="18" opacity=".2" rx="14" ry="12"/>
    <path d="M16 5A14 12 0 0 0 2 17a14 12 0 0 0 14 12z" fill="#f4f4f7"/>
    <path d="M16 5v24a14 12 0 0 0 14-12A14 12 0 0 0 16 5z" fill="#4f4f4f"/>
    <circle cx="11.5" cy="14.5" opacity=".1" r="1.5"/>
    <circle cx="11.5" cy="13.5" fill="#17191e" r="1.5"/>
    <path d="M16 19v3c9 0 11-6 11-6s-3 3-11 3z" fill="#f4f4f7"/>
    <path d="m21 13-3 3s1.737-.425 2.542 0c.605.32.458 2 .458 2s1-2 2-2 1 1 1 1l2-5s-2 3-4 3c-.745 0-1-2-1-2z" opacity=".2"/>
    <path d="m21 12-3 3s1.737-.425 2.542 0c.605.32.458 2 .458 2s1-2 2-2 1 1 1 1l2-5s-2 3-4 3c-.745 0-1-2-1-2z" fill="#f00e0e"/>
    <path d="M14 19h2v3h-2z" fill="#4f4f4f"/>
    <path d="M12 20s1 5 4 5c1.49 0 4-2.458 4-2.458S18 23 16 23s-2-3-2-3z" opacity=".1"/>
    <path d="M12 19s1 5 4 5c1.49 0 4-2.458 4-2.458S18 22 16 22s-2-3-2-3z" fill="#b3b3b3"/>
    <path d="M13 21c2 0 3-1 3-1s1 1 3 1c1 0 2-1 2-2s-1-3-5-3-5 2-5 3 1 2 2 2z" opacity=".2"/>
    <path d="M13 20c2 0 3-1 3-1s1 1 3 1c1 0 2-1 2-2s-1-3-5-3-5 2-5 3 1 2 2 2z" fill="#b3b3b3"/>
    <path d="m16 19 2-2h-4z" opacity=".1"/>
    <path d="m16 18 2-2h-4z" fill="#17191e"/>
    <g fill="#f4f4f7">
        <path d="M16 5A14 12 0 0 0 2 17a14 12 0 0 0 .023.414A14 12 0 0 1 16 6z" opacity=".2"/>
        <path d="M16 5v1a14 12 0 0 1 13.977 11.586A14 12 0 0 0 30 17 14 12 0 0 0 16 5z" opacity=".1"/>
    </g>
</svg>
